X:1
T:Title
%%score { ( 1 3 5 ) | ( 2 4 ) }
L:1/8
M:9/8
K:Bb
V:1 treble nm="Grand Piano"
V:3 treble 
V:5 treble 
V:2 bass 
V:4 bass 
V:1
 z3 z3[Q:1/4=100] [DF]3 | [DF]3- [DF][B,D][CE] [DF][Fd][Fc] | [GB][FA][EG] [DF]3 [DB]3 | %3
 A3- ACD EFG | [DF]6 [EF]3 | [DF]3- [DF][B,D][CE] [DF][Fd][Fc] | %6
 [B,GB][B,FA][B,EG] [B,DF]3 [DFB]3 | [FA]3- [FA][GB][Ac] [GB][FA][=EG] | %8
[M:21/16] F3/2-F3/2-F3/2-F3/2-F3/2- F3 |[M:9/8] .[Fd]6 z3 | [EB]2 A A6 | .e6 z3 | %12
 [EG]2 [DF] [DF]3 [DF]3 | .[Ff]6 z3 | [FA]2 [EG] [Ge]6 | .[Fd]6 z3 |[M:3/4] [DB]6 |] %17
V:2
 z3 z3 [B,,B,]3 | [B,,B,]3- [B,,B,][B,,F,][B,,F,] [B,,B,][B,,B,][D,B,] | %2
 [E,B,][E,B,][E,B,] [B,,B,]3 [B,,B,]3 | [F,CE]3- [F,CE][F,A,][F,B,] [F,A,C][F,A,D][F,A,E] | %4
 [B,,B,]6 [F,A,]3 | [B,,B,]3- [B,,B,][B,,F,][B,,F,] [B,,B,][B,,B,][D,B,] | E,E,E, B,,3 B,,3 | %7
 [C,C]3- [C,C][C,C][C,C] [C,C][C,C][C,B,] |[M:21/16] F,3- [F,-B,]3 [F,C]3/2- [F,C]3 | %9
[M:9/8] [B,,B,]B,,B,, z ED [D,B,]2 [_D,B,] | [C,F,]2 [F,CE] [F,CE]6 | %11
 F-[F,F-][F,F-] FBA[K:bass] z G,F, | [B,,B,]2 [B,,B,] [B,,B,]3 [B,,B,]3 | %13
 [B,D]B,B, B,[K:treble][A,CF][B,F][K:bass] [B,,B,][C,A,][D,B,] | [E,B,]2 [E,B,] [E,B,]6 | %15
 [F,B,]F,F, F,[K:treble]GF[K:bass] [F,A,E][F,B,D][F,E] |[M:3/4] [B,,F,]6 |] %17
V:3
 x9 | x9 | x9 | x9 | x9 | x9 | x9 | x9 |[M:21/16] z3 D3 E3/2- E3 | %9
[M:9/8] z B,B, z cB [FB][FA][FG] | x9 | z CC z dc [Ac][GB][A,FA] | x9 | z DD Ded [Fd][Fc][FB] | %14
 x9 | z B,B, B,ed cBA |[M:3/4] x6 |] %17
V:4
 x9 | x9 | x9 | x9 | x9 | x9 | x9 | x9 |[M:21/16] A,3 z3/2 z3/2 z3/2 z3 |[M:9/8] z3 B,,3 z3 | x9 | %11
 .[F,C]3 F,3[K:bass] .F,3 | x9 | x4[K:treble] x2[K:bass] x3 | x9 | x4[K:treble] x2[K:bass] x3 | %16
[M:3/4] x6 |] %17
V:5
 x9 | x9 | x9 | x9 | x9 | x9 | x9 | x9 |[M:21/16] x21/2 |[M:9/8] z3 B,3 z3 | x9 | z3 C3 z3 | x9 | %13
 x9 | x9 | x9 |[M:3/4] x6 |] %17

